X: 1
T: Orphan, The
Z: Damien Rogeau
S: https://thesession.org/tunes/217#setting32691
R: jig
M: 6/8
L: 1/8
K: Emin
|:~E3 EDE|GFG AGA|~B3 AFA|GEF EDB|
~E3 EDE|GFG AGA|BGB AFA|FED ~E3:|
|:eBe dBA|GAB dBd|edB AGA|BGE DBD|
(G~G3) DE|GFG AGA|BGB AFA|GED E3:|

